logos/gnome-icon.svg

<?xml version="1.0" encoding="UTF-8"?>
<svg width="256px" height="315px" viewBox="0 0 256 315" version="1.1" xmlns="http://www.w3.org/2000/svg" xmlns:xlink="http://www.w3.org/1999/xlink" preserveAspectRatio="xMidYMid">
    <title>GNOME</title>
    <g>
        <path d="M210.657507,136.722855 C221.271049,199.786823 60.255982,222.815204 120.885408,268.975729 C139.930716,283.476557 159.37779,272.368125 156.432393,249.874546 C153.973903,231.108612 222.388546,219.744752 217.02989,248.10518 C210.013619,285.296479 172.511017,314.654669 139.997234,314.654669 C73.9053856,314.654669 10.5647037,237.797619 22.9449521,182.399134 C41.2346204,100.49207 201.847922,84.3761951 210.657507,136.722855 Z M30.4587758,128.919014 C16.5140343,135.054594 -15.1589673,95.4926099 8.54256983,79.1159865 C32.2547497,62.7420237 44.4035172,122.780774 30.4587758,128.919014 Z M69.7493684,97.4934582 C53.1625494,100.883193 28.0481792,50.4495787 57.6564758,38.2316331 C87.2594509,26.0163483 86.3494907,94.1090447 69.7493684,97.4934582 Z M229.008372,0 C294.469635,0 224.913552,93.2336735 188.094751,93.2336735 C151.27063,93.2336735 163.549772,0 229.008372,0 Z M120.316018,81.6809037 C100.70132,80.4835876 87.7463596,16.4191946 124.583785,11.6379124 C161.434513,6.85663014 139.922734,82.8782197 120.316018,81.6809037 Z" fill="#000000"></path>
    </g>
</svg>

<svg width="256" height="315" xmlns="http://www.w3.org/2000/svg" preserveAspectRatio="xMidYMid">
	<path d="M210.658 136.723c10.613 63.064-150.402 86.092-89.773 132.253 19.046 14.5 38.493 3.392 35.547-19.101-2.458-18.766 65.957-30.13 60.598-1.77-7.016 37.191-44.519 66.55-77.033 66.55-66.092 0-129.432-76.857-117.052-132.256 18.29-81.907 178.903-98.023 187.713-45.676Zm-180.2-7.804c-13.944 6.136-45.617-33.426-21.915-49.803 23.712-16.374 35.86 43.665 21.916 49.803ZM69.75 97.493c-16.586 3.39-41.7-47.043-12.093-59.261C87.26 26.016 86.35 94.109 69.75 97.493ZM229.01 0c65.46 0-4.095 93.234-40.914 93.234C151.27 93.234 163.55 0 229.008 0ZM120.315 81.68c-19.615-1.196-32.57-65.26 4.268-70.042 36.85-4.781 15.339 71.24-4.268 70.043Z"/>
</svg>
